remix/Finance/price-tag-3-fill.svg

<svg viewBox="0 0 24 24" fill="currentColor" xmlns="http://www.w3.org/2000/svg"><path d="M10.9042 2.10025L20.8037 3.51446L22.2179 13.414L13.0255 22.6063C12.635 22.9969 12.0019 22.9969 11.6113 22.6063L1.71184 12.7069C1.32131 12.3163 1.32131 11.6832 1.71184 11.2926L10.9042 2.10025ZM13.7327 10.5855C14.5137 11.3666 15.78 11.3666 16.5611 10.5855C17.3421 9.80448 17.3421 8.53815 16.5611 7.7571C15.78 6.97606 14.5137 6.97606 13.7327 7.7571C12.9516 8.53815 12.9516 9.80448 13.7327 10.5855Z"/></svg>

<svg viewBox="0 0 24 24" xmlns="http://www.w3.org/2000/svg"><path fill="none" d="M0 0h24v24H0Z"/><path d="M10.9 2.1l9.899 1.41 1.41 9.9 -9.192 9.192h-.001c-.4.39-1.03.39-1.42 0l-9.9-9.9H1.69c-.4-.4-.4-1.03 0-1.42l9.193-9.193Zm2.82 8.486v0c.78.78 2.04.78 2.82-.01 .78-.79.78-2.05-.01-2.83v0c-.79-.79-2.05-.79-2.83 0 -.79.78-.79 2.04 0 2.82Z"/></svg>
